X:2811
T:Two To One
P:Mrs Campbell of Monzies
C:R. Mackintosh
R:Jig (8x32)
B:RSCDS 28-11
Z:Anselm Lingnau <anselm@strathspey.org>
M:6/8
L:1/8
K:Bb
|:F|"Bb"D/E/FF F2B|"Eb"E/F/GG G2B|"F"A/B/cc "F7"c2e|"Bb"dfb fdB|\
    "Bb"D/E/FF F2B|"Eb"E/F/GG G2B|
                                  "F"[AF]>Bc "F7"[FE]GA|"Bb"[B3F3D3][B2F2D2]:|\
  B|"Bb"d>ef fdB|"Eb"egb bge|"Bb"d>ef fdB|"F"A>Bc cAF|
    "Bb"d>ef fdB|"Eb"egb bge|"Bb"def "F7"edc|"Bb"B3 B2e|\
    "Bb"d>ef fdB|"Eb"egb bge|
                             "Bb"def fdB|"F"ABc cFA|\
    "Eb"GAB "F"ABc|"Gm"Bcd "F7/A"efg|"Bb"fed "F7"cBA|"Bb"B3 B2|]

